assets/calendat-icon.svg

<svg width="24" height="24" viewBox="0 0 24 24" fill="none" xmlns="http://www.w3.org/2000/svg">
<g clip-path="url(#clip0_229_3442)">
<path d="M7.11111 14.3998C6.76482 14.3998 6.47433 14.2846 6.23967 14.0542C6.005 13.8238 5.88808 13.539 5.88889 13.1998C5.88889 12.8598 6.00622 12.5746 6.24089 12.3442C6.47556 12.1138 6.76563 11.999 7.11111 11.9998C7.45741 11.9998 7.74789 12.115 7.98256 12.3454C8.21722 12.5758 8.33415 12.8606 8.33333 13.1998C8.33333 13.5398 8.216 13.825 7.98133 14.0554C7.74667 14.2858 7.45659 14.4006 7.11111 14.3998ZM12 14.3998C11.6537 14.3998 11.3632 14.2846 11.1286 14.0542C10.8939 13.8238 10.777 13.539 10.7778 13.1998C10.7778 12.8598 10.8951 12.5746 11.1298 12.3442C11.3644 12.1138 11.6545 11.999 12 11.9998C12.3463 11.9998 12.6368 12.115 12.8714 12.3454C13.1061 12.5758 13.223 12.8606 13.2222 13.1998C13.2222 13.5398 13.1049 13.825 12.8702 14.0554C12.6356 14.2858 12.3455 14.4006 12 14.3998ZM16.8889 14.3998C16.5426 14.3998 16.2521 14.2846 16.0174 14.0542C15.7828 13.8238 15.6659 13.539 15.6667 13.1998C15.6667 12.8598 15.784 12.5746 16.0187 12.3442C16.2533 12.1138 16.5434 11.999 16.8889 11.9998C17.2352 11.9998 17.5257 12.115 17.7603 12.3454C17.995 12.5758 18.1119 12.8606 18.1111 13.1998C18.1111 13.5398 17.9938 13.825 17.7591 14.0554C17.5244 14.2858 17.2344 14.4006 16.8889 14.3998ZM3.44445 23.9998C2.77222 23.9998 2.19656 23.7646 1.71745 23.2942C1.23834 22.8238 0.999187 22.259 1 21.5998V4.79976C1 4.13976 1.23956 3.57456 1.71867 3.10416C2.19778 2.63376 2.77304 2.39896 3.44445 2.39976H4.66667V-0.000244141H7.11111V2.39976H16.8889V-0.000244141H19.3333V2.39976H20.5556C21.2278 2.39976 21.8034 2.63496 22.2826 3.10536C22.7617 3.57576 23.0008 4.14056 23 4.79976V21.5998C23 22.2598 22.7604 22.825 22.2813 23.2954C21.8022 23.7658 21.227 24.0006 20.5556 23.9998H3.44445ZM3.44445 21.5998H20.5556V9.59976H3.44445V21.5998Z" fill="#7EA373"/>
</g>
<defs>
<clipPath id="clip0_229_3442">
<rect width="24" height="24" fill="white" transform="translate(0 -0.000244141)"/>
</clipPath>
</defs>
</svg>

<svg width="24" height="24" fill="none" xmlns="http://www.w3.org/2000/svg"><g clip-path="url(#a)"><path d="M7.111 14.4c-.346 0-.637-.115-.871-.346a1.146 1.146 0 0 1-.351-.854c0-.34.117-.625.352-.856A1.19 1.19 0 0 1 7.11 12c.346 0 .637.115.872.345.234.23.351.516.35.855 0 .34-.117.625-.352.855a1.19 1.19 0 0 1-.87.345Zm4.889 0c-.346 0-.637-.115-.871-.346a1.146 1.146 0 0 1-.351-.854c0-.34.117-.625.352-.856A1.19 1.19 0 0 1 12 12c.346 0 .637.115.871.345.235.23.352.516.351.855 0 .34-.117.625-.352.855a1.19 1.19 0 0 1-.87.345Zm4.889 0c-.346 0-.637-.115-.872-.346a1.146 1.146 0 0 1-.35-.854c0-.34.117-.625.352-.856a1.19 1.19 0 0 1 .87-.344c.346 0 .637.115.871.345.235.23.352.516.351.855 0 .34-.117.625-.352.855a1.19 1.19 0 0 1-.87.345ZM3.444 24a2.377 2.377 0 0 1-1.727-.706A2.286 2.286 0 0 1 1 21.6V4.8c0-.66.24-1.225.719-1.696A2.371 2.371 0 0 1 3.444 2.4h1.223V0H7.11v2.4h9.778V0h2.444v2.4h1.223a2.38 2.38 0 0 1 1.727.705c.479.47.718 1.036.717 1.695v16.8c0 .66-.24 1.225-.719 1.695a2.37 2.37 0 0 1-1.725.705H3.444Zm0-2.4h17.112v-12H3.444v12Z" fill="#7EA373"/></g><defs><clipPath id="a"><path fill="#fff" d="M0 0h24v24H0z"/></clipPath></defs></svg>
